Papirus/16x16/panel/signal-tray.svg

<svg xmlns="http://www.w3.org/2000/svg" width="16" height="16" version="1.1">
 <defs>
  <style id="current-color-scheme" type="text/css">
   .ColorScheme-Text { color:#dfdfdf; } .ColorScheme-Highlight { color:#4285f4; } .ColorScheme-NeutralText { color:#ff9800; } .ColorScheme-PositiveText { color:#4caf50; } .ColorScheme-NegativeText { color:#f44336; }
  </style>
 </defs>
 <path style="fill:currentColor" class="ColorScheme-Text" d="M 7.9746094,0.999954 7.3125,1.0351151 7.2617188,1.0390219 6.6191406,1.1386452 6.5703125,1.1484122 5.9492188,1.3105442 5.9003906,1.324218 5.578125,1.4433753 5.9238281,2.3829594 6.2324219,2.2696623 6.7988281,2.1231576 7.3828125,2.0333013 8.0253906,2.0000935 8.0078125,1.6543422 8.0410156,1.0019074 8.0253906,0.999954 8,1.5000238 Z m 1.1132812,0.0937631 -0.1523437,0.9884191 0.265625,0.041021 0.5664062,0.1465047 0.5624999,0.2051068 0.521484,0.2539417 0.486329,0.2969164 0.123047,0.089856 0.599609,-0.800893 -0.134766,-0.099623 -0.03906,-0.027348 -0.535157,-0.3262174 -0.04297,-0.023441 -0.56836,-0.275429 -0.04492,-0.017581 -0.595703,-0.2207339 -0.04883,-0.013674 -0.6210935,-0.162132 -0.048828,-0.00977 z M 4.5820312,1.9024237 4.1132812,2.1876197 4.0742188,2.2149673 3.5722656,2.5900196 3.5371094,2.621274 3.0742188,3.0412544 3.0410156,3.0744622 2.6210938,3.5374174 2.5898438,3.5725785 2.2441406,4.0335803 3.0449219,4.6332733 3.3789062,4.1878987 3.7636719,3.7640115 4.1875,3.3791921 4.6621094,3.0236738 5.1035156,2.7560584 Z m 8.2812498,1.0821822 -0.671875,0.7403376 0.04492,0.041021 0.384766,0.4219338 0.355468,0.4746756 0.294922,0.486396 0.253907,0.5215571 0.132812,0.3613786 0.9375,-0.343798 L 14.455078,5.3052421 14.4375,5.2603139 14.162109,4.6918752 14.138672,4.6489005 13.8125,4.1136696 13.78516,4.0746016 13.41016,3.5725784 13.37891,3.5374174 12.958988,3.0744622 12.925788,3.0412542 Z M 8,3.000233 A 5,5.0006976 0 0 0 3,8.0009306 5,5.0006976 0 0 0 3.671875,10.493466 L 3,13.001628 5.5039062,12.329659 A 5,5.0006976 0 0 0 8,13.001628 5,5.0006976 0 0 0 13,8.0009306 5,5.0006976 0 0 0 8,3.000233 Z M 1.6972656,4.9809782 1.5625,5.2603139 1.5449219,5.3052421 1.3242188,5.9010283 1.3105469,5.9498633 1.1484375,6.5710437 1.1386719,6.6198786 1.0390625,7.2625464 1.0351562,7.3133347 1,7.9755365 1.00195,8.0458585 1.01172,8.1454815 2.0078125,8.0556258 2.0019531,7.993117 2.0332031,7.383657 2.1230469,6.7995911 2.2695312,6.2331059 2.4765625,5.6705274 2.5976562,5.4165857 Z m 13.1835934,1.7678247 -0.988281,0.1504115 0.07422,0.4844426 0.03125,0.6172736 -0.03125,0.6172736 -0.08984,0.5840659 -0.119141,0.4649086 0.966797,0.2519883 0.126953,-0.4883494 0.0098,-0.048835 0.09961,-0.6426679 0.0039,-0.050788 L 15,8.0263248 V 7.9755368 L 14.96484,7.313335 14.96094,7.262547 Z M 2.15625,8.9659091 1.1855469,9.2042235 1.21875,9.3448681 l 0.017578,0.056648 0.3847657,1.0216269 -0.375,1.394725 0.9667968,0.257849 L 2.626953,10.52472 2.613281,10.219989 2.1835936,9.0792056 Z m 11.28125,1.5431839 -0.166016,0.343797 -0.294922,0.486397 -0.355468,0.474676 -0.384766,0.423887 -0.423828,0.384819 -0.05859,0.04297 0.59961,0.800894 0.07422,-0.0547 0.03516,-0.03125 0.46289,-0.41998 0.0332,-0.03321 0.419922,-0.462955 0.03125,-0.03516 0.375,-0.502023 0.02734,-0.03907 0.326172,-0.535232 0.02344,-0.04297 0.175782,-0.365286 z m -12.421875,2.347984 -0.013672,0.10353 0.00195,0.136738 0.056641,0.388726 0.035156,0.125017 0.1523438,0.351612 0.064453,0.107436 0.2324219,0.300824 0.085937,0.08595 0.3007812,0.232455 0.1074219,0.06446 0.3515625,0.152365 0.125,0.03516 0.3886719,0.05665 0.1367187,0.002 0.4121094,-0.05274 0.064453,-0.01367 0.1679688,-0.04493 -0.2597657,-0.964978 -0.1289062,0.03516 -0.3183594,0.04102 -0.25,-0.03711 -0.2324218,-0.101577 -0.2011719,-0.154318 -0.1542969,-0.2012 -0.1015625,-0.232455 -0.037109,-0.250035 0.00586,-0.03907 -0.011719,-0.002 -0.00391,-0.0293 -0.1074219,0.01563 z m 9.953125,0.345751 -0.117188,0.07032 -0.521484,0.253943 -0.5624999,0.205106 -0.5664062,0.146505 -0.5839844,0.08986 -0.2597656,0.01367 0.050781,1.00014 0.2792969,-0.01563 0.050781,-0.0039 0.6425782,-0.09962 0.048828,-0.0098 0.621094,-0.162132 0.04883,-0.01367 0.595703,-0.220734 0.04492,-0.01758 0.56836,-0.27543 0.04297,-0.02344 0.136719,-0.084 z m -5.4941406,0.171899 -1.0820313,0.289103 0.2597657,0.966931 0.9238281,-0.248081 1.0234375,0.382866 0.056641,0.01758 0.6035156,0.146504 0.072266,0.01367 h 0.00781 L 7.390625,14.398307 7.4960938,13.958793 6.921875,13.820101 5.7792969,13.388401 Z"/>
</svg>

<svg xmlns="http://www.w3.org/2000/svg" width="16" height="16" version="1.1">
 <defs>
  <style id="current-color-scheme" type="text/css">
   .ColorScheme-Text { color:#dfdfdf; } .ColorScheme-Highlight { color:#4285f4; } .ColorScheme-NeutralText { color:#ff9800; } .ColorScheme-PositiveText { color:#4caf50; } .ColorScheme-NegativeText { color:#f44336; }
  </style>
 </defs>
 <path style="fill:currentColor" class="ColorScheme-Text" d="M 8,3 C 5.24,3 3,5.24 3,8 3,8.88 3.23,9.74 3.67,10.49 L 3,13 5.5,12.33 C 6.26,12.77 7.12,13 8,13 10.76,13 13,10.76 13,8 13,5.24 10.76,3 8,3 Z M 7.9746,1 C 7.0747,1.0033 6.3699,1.1265 5.5781,1.4434 L 5.9199,2.373 C 6.5685,2.1316 7.2698,2 8,2 Z M 9.0879,1.0938 8.9375,2.0742 C 9.8671,2.2217 10.727,2.5844 11.465,3.1094 L 12.061,2.3145 C 11.147,1.6591 10.249,1.2471 9.0879,1.0938 Z M 4.582,1.9023 C 3.6517,2.4279 2.8507,3.1581 2.2441,4.0332 L 3.041,4.6309 C 3.5704,3.8555 4.278,3.2099 5.1016,2.752 Z M 12.863,2.9844 12.195,3.7207 C 12.849,4.3614 13.356,5.1493 13.664,6.0293 L 14.596,5.6875 C 14.237,4.5991 13.67,3.7667 12.863,2.9844 Z M 1.6973,4.9805 C 1.2539,5.8968 1,6.9196 1,8 H 2 C 2,7.0747 2.2119,6.1966 2.5898,5.4121 Z M 14.881,6.748 13.895,6.8984 C 13.962,7.2561 14,7.6235 14,8 14,8.5785 13.914,9.1377 13.76,9.668 L 14.725,9.9199 C 14.901,9.3085 15,8.6656 15,8 15,7.5616 14.959,7.1648 14.881,6.748 Z M 2.123,8.9746 1.1855,9.2051 C 1.306,9.7193 1.4333,9.9352 1.625,10.389 L 1.2461,11.818 2.2109,12.076 2.6523,10.422 C 2.439,9.9523 2.2433,9.4715 2.123,8.9746 Z M 13.443,10.514 C 13.052,11.355 12.471,12.091 11.756,12.668 L 12.354,13.467 C 13.225,12.77 13.876,11.973 14.338,10.945 Z M 1.0137,12.854 C 0.92995,14.15 2.2042,15.287 3.5215,14.932 L 3.6855,14.887 3.4258,13.924 3.2598,13.967 C 2.5154,14.168 2.002,13.481 2.002,13.023 Z M 10.971,13.207 C 10.191,13.655 9.3035,13.932 8.3574,13.988 L 8.4082,14.982 C 9.5714,14.935 10.535,14.608 11.488,14.055 Z M 5.5684,13.348 4.3926,13.664 4.6523,14.629 5.6016,14.375 C 6.1412,14.602 6.7043,14.839 7.3398,14.943 L 7.4961,13.963 C 6.8276,13.874 6.1878,13.627 5.5684,13.348 Z"/>
</svg>
